X:1
T: Eight O'Clock Train
P:40 bar reel
R:Reel
Q: 232
K:A
M:4/4
L:1/8
|:AB|c2 Ac B2 GB|A=G ED GE D2|EA AB cd ef|=ge dB =GA Bd|
c2 Ac B2 GB|A=G ED GE D2|EA AB cd ef|=ge dB A3c|
ea gb ag eg|ag bg ag ef|=g2 ga gf ef|=ge af ge d2|
ea gb ag eg|ag bg ag ef|=g2 g2 a2 a2|b=g af ge dB|
cB Ac BA GB|A=G ED GE D2|EA AB cd ef|=ge dB A2:|
